X: 04066
T: NASH THE SHROO
C: Bob McQuillen Oct '79 (in Norwich, VT Woods)
B: Bob's Note Book 04 #66
%R: jig
Z: 2020 John Chambers <jc:trillian.mit.edu>
M: 6/8
L: 1/8
K: D
FE \
| DFE DFG | AFD DB,A, | GFG EFD | EFD "^*gnashing"CB,A, |\
| DFE DFG | AFD DFA | Bcd dcd | ecA A :|
|: ag \
| fab afe | fdd Add | efg fec | Ace eAG |\
| FAd dcd | ecA Aag | faf gea | fdd d :|
%%begintext align
%% I was about half-way through this jig when a
%% mouse started gnawing on my lamp. And then I
%% said, well, it might be a shrew after a big dinner
%% (me). And I thought about those teeth, and I
%% named him.
%%endtext

%%sep 1 1 500

%%sep 1 1 500

